X: 346
M: 6/8
L: 1/8
K: A
V: 1
|:\
|:\
e3 =gec | ec^A c^AF | d3 fdB | dBG BGE |\
c3  ecA | afd  ecA  | f3 edc | BAG A3 :|
V: 2 clef=bass middle=d
|:\
a3 a3 | a3 a3 | a3 d3 | e3 e3 |\
a3 a3 | a3 a3 | a3 a3 | b3 e3 :|
|:\
e3 e3 | e3 e3 | d3 d3 | d3 d3 |\
a3 a3 | a3 a3 | d3 d3 | e3 a3 :|

